public/filterSVGs/pipe.svg

<svg height="32" viewBox="0 0 256 256" width="32" xmlns="http://www.w3.org/2000/svg"><path d="m232 104h-24v-48h24a8 8 0 0 0 0-16h-26.17a16 16 0 0 0 -13.83-8h-16a16 16 0 0 0 -13.83 8h-18.17a104.11 104.11 0 0 0 -104 104v18.16a16 16 0 0 0 -8 13.84v16a16 16 0 0 0 8 13.84v26.16a8 8 0 0 0 16 0v-24h48v24a8 8 0 0 0 16 0v-26.16a16 16 0 0 0 8-13.84v-16a16 16 0 0 0 -8-13.84v-18.16a24 24 0 0 1 24-24h18.17a16 16 0 0 0 13.83 8h16a16 16 0 0 0 13.83-8h26.17a8 8 0 0 0 0-16zm-120 72v16h-64v-16zm-8-32v16h-48v-16a88.1 88.1 0 0 1 88-88h16v48h-16a40 40 0 0 0 -40 40zm72-32v-64h16v63.8.2z"/></svg>

<svg xmlns="http://www.w3.org/2000/svg" width="32" height="32" fill="#000000" viewBox="0 0 256 256"><path d="M232,104H208V56h24a8,8,0,0,0,0-16H205.83A16,16,0,0,0,192,32H176a16,16,0,0,0-13.83,8H144A104.11,104.11,0,0,0,40,144v18.16A16,16,0,0,0,32,176v16a16,16,0,0,0,8,13.84V232a8,8,0,0,0,16,0V208h48v24a8,8,0,0,0,16,0V205.84A16,16,0,0,0,128,192V176a16,16,0,0,0-8-13.84V144a24,24,0,0,1,24-24h18.17A16,16,0,0,0,176,128h16a16,16,0,0,0,13.83-8H232a8,8,0,0,0,0-16ZM112,176v16H48V176Zm-8-32v16H56V144a88.1,88.1,0,0,1,88-88h16v48H144A40,40,0,0,0,104,144Zm72-32V48h16v63.8c0,.07,0,.13,0,.2Z"></path></svg>
